X: 1961
T: Wallaby Rocks
B: australian traditional tunes wiki
M:6/8
L:1/8
R: Jig
Q: 3/8=100
K:G
V:1 
d2c|:"G"B2AG2D|"D7"F2E""c3|"G"B2A DEF|"D7"A2GE2D|
"G"B2AG2D|"D7"F2Ec3|"G"B2A DEF|1"G" G3d2c:|2"G"G3G3||
|:"D"A3A3|AAA A2e|f2f ABc|"A7"e2d B2A|
"D"A3A3|AAA A2e|f2f ABc|1"D"d3d3:|2"D"d3"D7"=c3||
% abcbook-tune_id 6342d5be98909c3cc896ac8b


% abcbook-boost 0
% abcbook-tablature 
% abcbook-transpose 
% abcbook-lastupdated 1665324490709
% abcbook-soundfonts 
% abcbook-repeats 1
% NFF Book 2008

